assets/icons/utility/watchlist.svg

<?xml version="1.0"?><svg xmlns="http://www.w3.org/2000/svg" width="52" height="52" viewBox="0 0 52 52"><title></title><path d="m42.9 7h0.2l0.3 0.1a2.5 2.5 0 0 1 1.4 1l0.2 0.3 4.2 7.4c1.5 2.7 0.2 3.4-1.1 4.2s-2.5 1.1-3.9-0.8l-0.1-0.2-0.7-1.3-6.4 25a3 3 0 0 1-5.3 1.1l-0.1-0.1-10.7-16.5-5.5 12a3 3 0 0 1-2.7 1.8h-9.1c-0.4 0-1.5-0.4-1.5-1.4a4.1 4.1 0 0 0-0.1-1.3v-1.8a1.5 1.5 0 0 1 1.4-1.6h7.4l7-15.2a2.9 2.9 0 0 1 3.9-1.5 3 3 0 0 1 1.3 1.1l9.9 15.3 4.6-18.1-0.9 0.5c-1.9 1.3-2.7 0.7-3.9-0.8l-0.2-0.3c-0.8-1.3-1.1-2.6 0.1-3.5l1-0.7 7.4-4.3a3.1 3.1 0 0 1 1.9-0.4z" fill="#fff"></path></svg>

<svg data-name="Layer 1" xmlns="http://www.w3.org/2000/svg" width="52" height="52" viewBox="0 0 52 52"><path d="M42.9,7h.2l.3.1a2.45,2.45,0,0,1,1.4,1l.2.3,4.2,7.4c1.5,2.7.2,3.4-1.1,4.2s-2.5,1.1-3.9-.8l-.1-.2-.7-1.3L37,42.7a3,3,0,0,1-5.3,1.1l-.1-.1L20.9,27.2l-5.5,12A3,3,0,0,1,12.7,41H3.6c-.4,0-1.5-.4-1.5-1.4A4.06,4.06,0,0,0,2,38.3V36.5a1.52,1.52,0,0,1,1.44-1.6H10.8l7-15.2a2.94,2.94,0,0,1,3.86-1.55A3,3,0,0,1,23,19.3h0l9.9,15.3,4.6-18.1-.9.5c-1.9,1.3-2.7.7-3.9-.8l-.2-.3c-.8-1.3-1.1-2.6.1-3.5l1-.7L41,7.4A3.14,3.14,0,0,1,42.9,7Z" fill="#fff"/></svg>
